X:66
T: Sichlein rauschen (Band 1), S. 195
N: P0841
O: Lothringen
S: PINCK, Louis: Verklingende Weisen, Bd 1, Metz 1928]
R: Liebesklage]
M: 6/8
L: 1/8
K: E
E | EEEF=GA | B3F2
F | B2BBA=G | F3z2
B | A2F=GFE | A3B2
E | EF=GBGF | E3z2

@@@ Tune index: 7616
